img/blackbtnbg.svg

<svg width="152" height="60" viewBox="0 0 152 60" fill="none" xmlns="http://www.w3.org/2000/svg">
<path d="M0 2.28053C0 1.07229 1.08107 0.142451 2.27929 0.297763C58.8327 7.6282 91.8964 7.55015 149.728 0.287349C150.924 0.137215 152 1.06604 152 2.27092V57.7923C152 58.9747 150.962 59.8971 149.785 59.7823C92.5701 54.1986 59.4941 54.1317 2.21737 59.7797C1.03978 59.8958 0 58.9732 0 57.7899V2.28053Z" fill="black"/>
<path d="M27.42 37.2C26.3133 37.2 25.3733 37 24.6 36.6C23.8267 36.2 23.1333 35.6133 22.52 34.84L24.08 33.28C24.4667 33.84 24.9267 34.28 25.46 34.6C25.9933 34.9067 26.6733 35.06 27.5 35.06C28.2733 35.06 28.8867 34.9 29.34 34.58C29.8067 34.26 30.04 33.82 30.04 33.26C30.04 32.7933 29.92 32.4133 29.68 32.12C29.44 31.8267 29.12 31.5867 28.72 31.4C28.3333 31.2 27.9 31.0267 27.42 30.88C26.9533 30.72 26.48 30.5467 26 30.36C25.5333 30.16 25.1 29.9133 24.7 29.62C24.3133 29.3267 24 28.9467 23.76 28.48C23.52 28.0133 23.4 27.42 23.4 26.7C23.4 25.8733 23.6 25.1733 24 24.6C24.4133 24.0133 24.9667 23.5667 25.66 23.26C26.3533 22.9533 27.1267 22.8 27.98 22.8C28.9 22.8 29.72 22.98 30.44 23.34C31.1733 23.7 31.7667 24.16 32.22 24.72L30.66 26.28C30.26 25.8267 29.84 25.4933 29.4 25.28C28.9733 25.0533 28.48 24.94 27.92 24.94C27.2267 24.94 26.68 25.08 26.28 25.36C25.8933 25.64 25.7 26.0333 25.7 26.54C25.7 26.9667 25.82 27.3133 26.06 27.58C26.3 27.8333 26.6133 28.0533 27 28.24C27.4 28.4133 27.8333 28.58 28.3 28.74C28.78 28.9 29.2533 29.08 29.72 29.28C30.2 29.48 30.6333 29.74 31.02 30.06C31.42 30.3667 31.74 30.7667 31.98 31.26C32.22 31.7533 32.34 32.3733 32.34 33.12C32.34 34.3733 31.8933 35.3667 31 36.1C30.12 36.8333 28.9267 37.2 27.42 37.2ZM34.6333 37V23H36.9333V37H34.6333ZM43.5333 37V23H45.8333V37H43.5333ZM36.2133 30.8V28.7H44.0333V30.8H36.2133ZM55.3116 37.2C54.3116 37.2 53.3782 37.0133 52.5116 36.64C51.6449 36.2667 50.8849 35.7533 50.2316 35.1C49.5782 34.4333 49.0649 33.6667 48.6916 32.8C48.3316 31.92 48.1516 30.98 48.1516 29.98C48.1516 28.98 48.3316 28.0467 48.6916 27.18C49.0649 26.3133 49.5716 25.5533 50.2116 24.9C50.8649 24.2333 51.6182 23.72 52.4716 23.36C53.3382 22.9867 54.2716 22.8 55.2716 22.8C56.2716 22.8 57.1982 22.9867 58.0516 23.36C58.9182 23.72 59.6782 24.2333 60.3316 24.9C60.9849 25.5533 61.4916 26.32 61.8516 27.2C62.2249 28.0667 62.4116 29 62.4116 30C62.4116 31 62.2249 31.94 61.8516 32.82C61.4916 33.6867 60.9849 34.4467 60.3316 35.1C59.6916 35.7533 58.9382 36.2667 58.0716 36.64C57.2182 37.0133 56.2982 37.2 55.3116 37.2ZM55.2716 35C56.2182 35 57.0449 34.7867 57.7516 34.36C58.4716 33.9333 59.0316 33.3467 59.4316 32.6C59.8449 31.84 60.0516 30.9667 60.0516 29.98C60.0516 29.2467 59.9316 28.58 59.6916 27.98C59.4649 27.3667 59.1382 26.84 58.7116 26.4C58.2849 25.9467 57.7782 25.6 57.1916 25.36C56.6182 25.12 55.9782 25 55.2716 25C54.3382 25 53.5116 25.2133 52.7916 25.64C52.0849 26.0533 51.5249 26.6333 51.1116 27.38C50.7116 28.1267 50.5116 28.9933 50.5116 29.98C50.5116 30.7133 50.6249 31.3933 50.8516 32.02C51.0916 32.6333 51.4182 33.16 51.8316 33.6C52.2582 34.04 52.7649 34.3867 53.3516 34.64C53.9382 34.88 54.5782 35 55.2716 35ZM66.3305 31.72V29.72H69.8305C70.3105 29.72 70.7305 29.6267 71.0905 29.44C71.4638 29.24 71.7571 28.9667 71.9705 28.62C72.1838 28.26 72.2905 27.84 72.2905 27.36C72.2905 26.88 72.1838 26.4667 71.9705 26.12C71.7571 25.76 71.4638 25.4867 71.0905 25.3C70.7305 25.1 70.3105 25 69.8305 25H66.3305V23H69.9505C70.8305 23 71.6171 23.18 72.3105 23.54C73.0171 23.9 73.5705 24.4067 73.9705 25.06C74.3838 25.7133 74.5905 26.48 74.5905 27.36C74.5905 28.24 74.3838 29.0067 73.9705 29.66C73.5705 30.3133 73.0171 30.82 72.3105 31.18C71.6171 31.54 70.8305 31.72 69.9505 31.72H66.3305ZM64.7505 37V23H67.0505V37H64.7505ZM80.4731 37V23H82.0731L82.7731 25.64V37H80.4731ZM90.1731 37L81.7931 26.06L82.0731 23L90.4531 33.94L90.1731 37ZM90.1731 37L89.4731 34.54V23H91.7731V37H90.1731ZM101.249 37.2C100.249 37.2 99.3157 37.0133 98.4491 36.64C97.5824 36.2667 96.8224 35.7533 96.1691 35.1C95.5157 34.4333 95.0024 33.6667 94.6291 32.8C94.2691 31.92 94.0891 30.98 94.0891 29.98C94.0891 28.98 94.2691 28.0467 94.6291 27.18C95.0024 26.3133 95.5091 25.5533 96.1491 24.9C96.8024 24.2333 97.5557 23.72 98.4091 23.36C99.2757 22.9867 100.209 22.8 101.209 22.8C102.209 22.8 103.136 22.9867 103.989 23.36C104.856 23.72 105.616 24.2333 106.269 24.9C106.922 25.5533 107.429 26.32 107.789 27.2C108.162 28.0667 108.349 29 108.349 30C108.349 31 108.162 31.94 107.789 32.82C107.429 33.6867 106.922 34.4467 106.269 35.1C105.629 35.7533 104.876 36.2667 104.009 36.64C103.156 37.0133 102.236 37.2 101.249 37.2ZM101.209 35C102.156 35 102.982 34.7867 103.689 34.36C104.409 33.9333 104.969 33.3467 105.369 32.6C105.782 31.84 105.989 30.9667 105.989 29.98C105.989 29.2467 105.869 28.58 105.629 27.98C105.402 27.3667 105.076 26.84 104.649 26.4C104.222 25.9467 103.716 25.6 103.129 25.36C102.556 25.12 101.916 25 101.209 25C100.276 25 99.4491 25.2133 98.7291 25.64C98.0224 26.0533 97.4624 26.6333 97.0491 27.38C96.6491 28.1267 96.4491 28.9933 96.4491 29.98C96.4491 30.7133 96.5624 31.3933 96.7891 32.02C97.0291 32.6333 97.3557 33.16 97.7691 33.6C98.1957 34.04 98.7024 34.3867 99.2891 34.64C99.8757 34.88 100.516 35 101.209 35ZM113.683 37L109.083 23H111.343L114.803 33.78H114.203L117.583 23H119.183L122.563 33.78H121.963L125.423 23H127.683L123.083 37H121.483L118.083 26.24H118.683L115.283 37H113.683Z" fill="white" fill-opacity="0.9"/>
</svg>

<svg width="152" height="60" fill="none" xmlns="http://www.w3.org/2000/svg"><path d="M0 2.28C0 1.073 1.081.143 2.28.299c56.553 7.33 89.616 7.252 147.448-.01C150.924.137 152 1.065 152 2.27v55.521c0 1.183-1.038 2.105-2.215 1.99-57.215-5.583-90.29-5.65-147.568-.002C1.04 59.896 0 58.973 0 57.79V2.28Z" fill="#000"/><path d="M27.42 37.2c-1.107 0-2.047-.2-2.82-.6-.773-.4-1.467-.987-2.08-1.76l1.56-1.56c.387.56.847 1 1.38 1.32.533.307 1.213.46 2.04.46.773 0 1.387-.16 1.84-.48.467-.32.7-.76.7-1.32 0-.467-.12-.847-.36-1.14a2.678 2.678 0 0 0-.96-.72c-.387-.2-.82-.373-1.3-.52-.467-.16-.94-.333-1.42-.52a6.56 6.56 0 0 1-1.3-.74 3.297 3.297 0 0 1-.94-1.14c-.24-.467-.36-1.06-.36-1.78 0-.827.2-1.527.6-2.1a3.926 3.926 0 0 1 1.66-1.34c.693-.307 1.467-.46 2.32-.46.92 0 1.74.18 2.46.54.733.36 1.327.82 1.78 1.38l-1.56 1.56c-.4-.453-.82-.787-1.26-1-.427-.227-.92-.34-1.48-.34-.693 0-1.24.14-1.64.42-.387.28-.58.673-.58 1.18 0 .427.12.773.36 1.04.24.253.553.473.94.66.4.173.833.34 1.3.5.48.16.953.34 1.42.54.48.2.913.46 1.3.78.4.307.72.707.96 1.2s.36 1.113.36 1.86c0 1.253-.447 2.247-1.34 2.98-.88.733-2.073 1.1-3.58 1.1Zm7.213-.2V23h2.3v14h-2.3Zm8.9 0V23h2.3v14h-2.3Zm-7.32-6.2v-2.1h7.82v2.1h-7.82Zm19.099 6.4c-1 0-1.934-.187-2.8-.56a7.245 7.245 0 0 1-2.28-1.54 7.488 7.488 0 0 1-1.54-2.3c-.36-.88-.54-1.82-.54-2.82 0-1 .18-1.933.54-2.8a7.419 7.419 0 0 1 1.52-2.28 6.878 6.878 0 0 1 2.26-1.54c.866-.373 1.8-.56 2.8-.56 1 0 1.926.187 2.78.56.866.36 1.626.873 2.28 1.54a6.922 6.922 0 0 1 1.52 2.3c.373.867.56 1.8.56 2.8 0 1-.187 1.94-.56 2.82a6.974 6.974 0 0 1-1.52 2.28 7.012 7.012 0 0 1-2.26 1.54 6.81 6.81 0 0 1-2.76.56Zm-.04-2.2c.946 0 1.773-.213 2.48-.64a4.446 4.446 0 0 0 1.68-1.76c.413-.76.62-1.633.62-2.62 0-.733-.12-1.4-.36-2a4.459 4.459 0 0 0-.98-1.58 4.295 4.295 0 0 0-1.52-1.04c-.574-.24-1.214-.36-1.92-.36-.934 0-1.76.213-2.48.64a4.488 4.488 0 0 0-1.68 1.74c-.4.747-.6 1.613-.6 2.6 0 .733.113 1.413.34 2.04.24.613.566 1.14.98 1.58.426.44.933.787 1.52 1.04.586.24 1.226.36 1.92.36Zm11.059-3.28v-2h3.5c.48 0 .9-.093 1.26-.28.373-.2.666-.473.88-.82.213-.36.32-.78.32-1.26s-.107-.893-.32-1.24a2.09 2.09 0 0 0-.88-.82c-.36-.2-.78-.3-1.26-.3h-3.5v-2h3.62c.88 0 1.666.18 2.36.54.706.36 1.26.867 1.66 1.52.413.653.62 1.42.62 2.3 0 .88-.207 1.647-.62 2.3-.4.653-.954 1.16-1.66 1.52-.694.36-1.48.54-2.36.54h-3.62ZM64.75 37V23h2.3v14h-2.3Zm15.722 0V23h1.6l.7 2.64V37h-2.3Zm9.7 0-8.38-10.94.28-3.06 8.38 10.94-.28 3.06Zm0 0-.7-2.46V23h2.3v14h-1.6Zm11.076.2c-1 0-1.933-.187-2.8-.56a7.245 7.245 0 0 1-2.28-1.54 7.488 7.488 0 0 1-1.54-2.3c-.36-.88-.54-1.82-.54-2.82 0-1 .18-1.933.54-2.8a7.419 7.419 0 0 1 1.52-2.28 6.878 6.878 0 0 1 2.26-1.54c.867-.373 1.8-.56 2.8-.56 1 0 1.927.187 2.78.56.867.36 1.627.873 2.28 1.54a6.927 6.927 0 0 1 1.52 2.3c.373.867.56 1.8.56 2.8 0 1-.187 1.94-.56 2.82a6.979 6.979 0 0 1-1.52 2.28 7.007 7.007 0 0 1-2.26 1.54 6.808 6.808 0 0 1-2.76.56Zm-.04-2.2c.947 0 1.773-.213 2.48-.64a4.446 4.446 0 0 0 1.68-1.76c.413-.76.62-1.633.62-2.62 0-.733-.12-1.4-.36-2a4.457 4.457 0 0 0-.98-1.58 4.294 4.294 0 0 0-1.52-1.04c-.573-.24-1.213-.36-1.92-.36-.933 0-1.76.213-2.48.64a4.488 4.488 0 0 0-1.68 1.74c-.4.747-.6 1.613-.6 2.6 0 .733.113 1.413.34 2.04.24.613.567 1.14.98 1.58.427.44.933.787 1.52 1.04.587.24 1.227.36 1.92.36Zm12.474 2-4.6-14h2.26l3.46 10.78h-.6l3.38-10.78h1.6l3.38 10.78h-.6l3.46-10.78h2.26l-4.6 14h-1.6l-3.4-10.76h.6l-3.4 10.76h-1.6Z" fill="#fff" fill-opacity=".9"/></svg>
